X:548
T:Money Musk
R:Reel
S:from Cyril Stinnett
A:Missouri
B:transcribed in OTFR as #18
D:taken from the playing of Cyril Stinnett
Z:B. Shull, trans.; R. P. LaVaque, ABCs
M:2/4
L:1/16
Q:122 C:Trad.
K:A
(e2|:e)Acf ecdf|eAc(A Bc)d(f|e)(Ac)d eag(e|f)dBe cAAe|! eAcf ecdf|eAc(A
Bc)d(f|e)(Ac)d eaf(e|f)dBe cAAA|! |Aeae (fg)ae|ceae B(Bc)(B|A)cae (fg)ae|fdBe
cAAA|! Aeae (fg)ae|ceae B(Bc)(B|A)cae (fg)ae|fdBe cAAe-|! |a-e)(fa) (ea)ce|aedb
caBe|(aef)a (ea)ce|fdBe cAAe|! (ae)(fa) (ea)ce|aedb caBe|(aef)a (ea)ce|fdBe
cAAA|! |a2c'(a ba)c'b|(ae)ac' (bc')d'b)|a(ec')a f(ad)(c'|bd')bg a2c'(b-|!
-a-e)ac' (ba)c'b|(ae)ac' (bc')(d'b)|a(ec')a f(ad')(c'|bd')bg a2(c'a):|

